X:1
T:Title
%%score { 1 | 2 }
L:1/8
M:3/4
K:E
V:1 treble nm="Grand Piano"
V:2 bass 
V:1
 z2 z2[Q:1/4=100] [EG][FA] | [GB]2 [GB]2 [=G^A][^GB] | [Ac]2 [GB]2 GG | F2 F2 GF |[M:2/4] [DF]4 | %5
[M:1/4] [EG][FA] |[M:3/4] [GB]2 [GB]2 [=G^A][^GB] | [Ac]2 [GB]2 [EG][EG] | [DB]2 [DF]2 [DF][DG] | %9
[M:2/4] E4 |[M:1/4] EE |[M:3/4] B2 B2 ^AB | [Ec]2 [CA]2 AA | ^A2 A2 cd |[M:2/4] [DB]4 | %15
[M:1/4] [EG][FA] |[M:3/4] [GB]2 [GB]2 [=G^A][^GB] | [Ac]2 [GB]2 [B,EG][B,EG] | %18
 [B,DB]2 [A,DF]2 [A,DF][B,DG] |[M:6/4] .[G,E]6 z6 |] %20
V:2
 z2 z2 [E,B,][E,B,] | [E,E]2 [E,E]2 [E,E][E,E] | [E,E]2 [E,E]2 [E,B,E][E,B,E] | %3
 [F,^A,E]2 [F,A,E]2 [F,A,E][F,A,E] |[M:2/4] [B,,B,]4 |[M:1/4] [E,B,][E,B,] | %6
[M:3/4] [E,E]2 [E,E]2 [E,E][E,E] | [E,E]2 [E,E]2 [E,B,][E,B,] | [B,,B,]2 [B,,A,]2 [B,,A,][B,,B,] | %9
[M:2/4] [E,G,]4 |[M:1/4] [E,G,][E,G,] |[M:3/4] [E,G,=D]2 [E,G,D]2 [E,G,D][E,G,D] | %12
 [A,,A,]2 [A,,A,]2 [A,C][A,C] | [F,CE]2 [F,CE]2 [F,^A,E][F,A,E] |[M:2/4] [B,,B,]4 | %15
[M:1/4] [E,B,][E,B,] |[M:3/4] [E,E]2 [E,E]2 [E,E][E,E] | [E,E]2 [E,E]2 E,E, | B,,2 B,,2 B,,B,, | %19
[M:6/4] .E,6 z6 |] %20

